Newaita-dark/mimetypes/32/virtualbox-ova.svg

<?xml version="1.0" encoding="UTF-8"?>
<svg xmlns="http://www.w3.org/2000/svg" xmlns:xlink="http://www.w3.org/1999/xlink" width="32pt" height="32pt" viewBox="0 0 32 32" version="1.1">
<defs>
<linearGradient id="linear0" gradientUnits="userSpaceOnUse" x1="254" y1="233.5" x2="254" y2="254.666672" gradientTransform="matrix(0.062506,0,0,0.062506,-0.00000381506,13.438785)">
<stop offset="0" style="stop-color:rgb(0%,0%,0%);stop-opacity:0.27451;"/>
<stop offset="1" style="stop-color:rgb(0%,0%,0%);stop-opacity:0;"/>
</linearGradient>
<radialGradient id="radial0" gradientUnits="userSpaceOnUse" cx="450.908936" cy="189.579361" fx="450.908936" fy="189.579361" r="21.166656" gradientTransform="matrix(0.00000017417,-0.0781325,-0.140638,-0.000000101539,53.12293,63.595333)">
<stop offset="0" style="stop-color:rgb(0%,0%,0%);stop-opacity:0.313725;"/>
<stop offset="0.222222" style="stop-color:rgb(0%,0%,0%);stop-opacity:0.27451;"/>
<stop offset="1" style="stop-color:rgb(0%,0%,0%);stop-opacity:0;"/>
</radialGradient>
<radialGradient id="radial1" gradientUnits="userSpaceOnUse" cx="450.908936" cy="189.579361" fx="450.908936" fy="189.579361" r="21.166656" gradientTransform="matrix(-0.00000017417,0.0781325,0.140638,0.000000101539,-21.20452,-7.527479)">
<stop offset="0" style="stop-color:rgb(0%,0%,0%);stop-opacity:0.313725;"/>
<stop offset="0.222222" style="stop-color:rgb(0%,0%,0%);stop-opacity:0.27451;"/>
<stop offset="1" style="stop-color:rgb(0%,0%,0%);stop-opacity:0;"/>
</radialGradient>
<radialGradient id="radial2" gradientUnits="userSpaceOnUse" cx="450.908936" cy="189.579361" fx="450.908936" fy="189.579361" r="21.166656" gradientTransform="matrix(-0.00000017417,-0.0781325,0.140638,-0.000000101539,-21.20452,63.595333)">
<stop offset="0" style="stop-color:rgb(0%,0%,0%);stop-opacity:0.313725;"/>
<stop offset="0.222222" style="stop-color:rgb(0%,0%,0%);stop-opacity:0.27451;"/>
<stop offset="1" style="stop-color:rgb(0%,0%,0%);stop-opacity:0;"/>
</radialGradient>
<radialGradient id="radial3" gradientUnits="userSpaceOnUse" cx="450.908936" cy="189.579361" fx="450.908936" fy="189.579361" r="21.166656" gradientTransform="matrix(0.00000017417,0.0781325,-0.140638,0.000000101539,53.122929,-7.527479)">
<stop offset="0" style="stop-color:rgb(0%,0%,0%);stop-opacity:0.313725;"/>
<stop offset="0.222222" style="stop-color:rgb(0%,0%,0%);stop-opacity:0.27451;"/>
<stop offset="1" style="stop-color:rgb(0%,0%,0%);stop-opacity:0;"/>
</radialGradient>
<linearGradient id="linear1" gradientUnits="userSpaceOnUse" x1="254" y1="-168.666656" x2="254" y2="233.5" gradientTransform="matrix(0.062506,0,0,0.062506,0,13.438783)">
<stop offset="0" style="stop-color:rgb(100%,67.058824%,56.862745%);stop-opacity:1;"/>
<stop offset="1" style="stop-color:rgb(100%,54.117647%,39.607843%);stop-opacity:1;"/>
</linearGradient>
<linearGradient id="linear2" gradientUnits="userSpaceOnUse" x1="253.130798" y1="-129.433121" x2="253.130798" y2="272.733551" gradientTransform="matrix(3.779528,0,0,3.779528,3.285154,664.314209)">
<stop offset="0" style="stop-color:rgb(73.72549%,66.666667%,64.313725%);stop-opacity:1;"/>
<stop offset="1" style="stop-color:rgb(84.313725%,80%,78.431373%);stop-opacity:1;"/>
</linearGradient>
</defs>
<g id="surface1">
<path style=" stroke:none;fill-rule:nonzero;fill:rgb(0%,0%,0%);fill-opacity:0.196078;" d="M 3.96875 28.035156 C 3.234375 28.035156 2.644531 27.445312 2.644531 26.710938 L 2.644531 26.546875 C 2.644531 27.277344 3.234375 27.867188 3.96875 27.867188 L 27.785156 27.867188 C 28.515625 27.867188 29.105469 27.277344 29.105469 26.546875 L 29.105469 26.710938 C 29.105469 27.445312 28.515625 28.035156 27.785156 28.035156 Z M 3.96875 28.035156 "/>
<path style=" stroke:none;fill-rule:nonzero;fill:url(#linear0);" d="M 5.125 28.035156 L 26.792969 28.035156 L 26.792969 29.355469 L 5.125 29.355469 Z M 5.125 28.035156 "/>
<path style=" stroke:none;fill-rule:nonzero;fill:url(#radial0);" d="M 26.792969 28.035156 L 29.4375 28.035156 L 29.4375 26.710938 L 26.792969 26.710938 Z M 26.792969 28.035156 "/>
<path style=" stroke:none;fill-rule:nonzero;fill:url(#radial1);" d="M 5.125 28.035156 L 2.480469 28.035156 L 2.480469 29.355469 L 5.125 29.355469 Z M 5.125 28.035156 "/>
<path style=" stroke:none;fill-rule:nonzero;fill:url(#radial2);" d="M 5.125 28.035156 L 2.480469 28.035156 L 2.480469 26.710938 L 5.125 26.710938 Z M 5.125 28.035156 "/>
<path style=" stroke:none;fill-rule:nonzero;fill:url(#radial3);" d="M 26.792969 28.035156 L 29.4375 28.035156 L 29.4375 29.355469 L 26.792969 29.355469 Z M 26.792969 28.035156 "/>
<path style=" stroke:none;fill-rule:nonzero;fill:url(#linear1);" d="M 3.636719 2.894531 L 28.113281 2.894531 C 28.664062 2.894531 29.105469 3.339844 29.105469 3.886719 L 29.105469 27.042969 C 29.105469 27.589844 28.664062 28.035156 28.113281 28.035156 L 3.636719 28.035156 C 3.089844 28.035156 2.644531 27.589844 2.644531 27.042969 L 2.644531 3.886719 C 2.644531 3.339844 3.089844 2.894531 3.636719 2.894531 Z M 3.636719 2.894531 "/>
<path style="fill:none;stroke-width:21.155001;stroke-linecap:butt;stroke-linejoin:miter;stroke:rgb(7.843138%,7.843138%,7.843138%);stroke-opacity:0.235294;stroke-miterlimit:4;" d="M 148.17335 85.346318 L 179.920318 85.346318 L 222.228778 170.025732 L 275.161223 21.852382 L 317.469683 117.093287 L 349.279146 42.975365 L 391.587605 138.278764 L 433.896065 138.278764 " transform="matrix(0.062506,0,0,0.062506,0,13.438783)"/>
<path style=" stroke:none;fill-rule:nonzero;fill:rgb(100%,100%,100%);fill-opacity:0.0784314;" d="M 2.644531 24.394531 L 2.644531 27.042969 C 2.644531 27.589844 3.089844 28.035156 3.636719 28.035156 L 28.113281 28.035156 C 28.664062 28.035156 29.105469 27.589844 29.105469 27.042969 L 29.105469 24.394531 Z M 2.644531 24.394531 "/>
<path style=" stroke:none;fill-rule:nonzero;fill:rgb(0%,0%,0%);fill-opacity:0.235294;" d="M 12.597656 2.894531 L 12.664062 11.484375 L 13.132812 11.949219 L 13.574219 11.507812 L 14.015625 11.949219 L 14.472656 11.496094 L 14.925781 11.949219 L 15.378906 11.496094 L 15.835938 11.949219 L 16.289062 11.496094 L 16.746094 11.949219 L 17.199219 11.496094 L 17.65625 11.949219 L 18.109375 11.496094 L 18.5625 11.949219 L 19.03125 11.484375 L 19.03125 2.894531 Z M 12.597656 2.894531 "/>
<path style="fill-rule:nonzero;fill:url(#linear2);stroke-width:11.338583;stroke-linecap:round;stroke-linejoin:round;stroke:rgb(12.941177%,12.941177%,12.941177%);stroke-opacity:1;stroke-miterlimit:4;" d="M 764.336499 175.022665 L 768.351863 666.786754 L 796.459417 695.130505 L 823.385981 668.440139 L 850.076347 695.130505 L 877.475307 667.731546 L 905.110464 695.130505 L 932.509424 667.731546 L 959.908384 695.130505 L 987.543541 667.731546 L 1014.942501 695.130505 L 1042.577659 667.731546 L 1069.976619 695.130505 L 1097.611776 667.731546 L 1125.010736 695.130505 L 1153.354488 666.786754 L 1153.354488 175.022665 Z M 764.336499 175.022665 " transform="matrix(0.016538,0,0,0.016538,0,0)"/>
<path style=" stroke:none;fill-rule:nonzero;fill:rgb(100%,100%,100%);fill-opacity:0.392157;" d="M 3.636719 2.894531 C 3.089844 2.894531 2.644531 3.339844 2.644531 3.886719 L 2.644531 4.21875 C 2.644531 3.667969 3.089844 3.226562 3.636719 3.226562 L 28.113281 3.226562 C 28.664062 3.226562 29.105469 3.667969 29.105469 4.21875 L 29.105469 3.886719 C 29.105469 3.339844 28.664062 2.894531 28.113281 2.894531 Z M 3.636719 2.894531 "/>
<path style=" stroke:none;fill-rule:nonzero;fill:rgb(1.960784%,1.960784%,1.960784%);fill-opacity:0.235294;" d="M 3.636719 28.035156 C 3.089844 28.035156 2.644531 27.589844 2.644531 27.042969 L 2.644531 26.710938 C 2.644531 27.261719 3.089844 27.703125 3.636719 27.703125 L 28.113281 27.703125 C 28.664062 27.703125 29.105469 27.261719 29.105469 26.710938 L 29.105469 27.042969 C 29.105469 27.589844 28.664062 28.035156 28.113281 28.035156 Z M 3.636719 28.035156 "/>
<path style=" stroke:none;fill-rule:nonzero;fill:rgb(12.941177%,12.941177%,12.941177%);fill-opacity:1;" d="M 3.636719 2.800781 C 3.039062 2.800781 2.550781 3.289062 2.550781 3.886719 L 2.550781 27.042969 C 2.550781 27.640625 3.039062 28.128906 3.636719 28.128906 L 28.113281 28.128906 C 28.714844 28.128906 29.199219 27.640625 29.199219 27.042969 L 29.199219 3.886719 C 29.199219 3.289062 28.714844 2.800781 28.113281 2.800781 Z M 3.636719 2.988281 L 28.113281 2.988281 C 28.613281 2.988281 29.011719 3.390625 29.011719 3.886719 L 29.011719 27.042969 C 29.011719 27.542969 28.613281 27.941406 28.113281 27.941406 L 3.636719 27.941406 C 3.140625 27.941406 2.738281 27.542969 2.738281 27.042969 L 2.738281 3.886719 C 2.738281 3.390625 3.140625 2.988281 3.636719 2.988281 Z M 3.636719 2.988281 "/>
<path style=" stroke:none;fill-rule:nonzero;fill:rgb(0%,0%,0%);fill-opacity:0.235294;" d="M 6.285156 4.21875 L 4.628906 6.203125 L 5.621094 6.203125 L 5.621094 8.851562 L 6.945312 8.851562 L 6.945312 6.203125 L 7.9375 6.203125 Z M 6.285156 4.21875 "/>
<path style=" stroke:none;fill-rule:nonzero;fill:rgb(0%,0%,0%);fill-opacity:0.235294;" d="M 9.59375 4.21875 L 7.9375 6.203125 L 8.929688 6.203125 L 8.929688 8.851562 L 10.253906 8.851562 L 10.253906 6.203125 L 11.246094 6.203125 Z M 9.59375 4.21875 "/>
<path style=" stroke:none;fill-rule:nonzero;fill:rgb(0%,0%,0%);fill-opacity:0.235294;" d="M 4.960938 9.511719 L 10.914062 9.511719 L 10.914062 10.171875 L 4.960938 10.171875 Z M 4.960938 9.511719 "/>
<path style=" stroke:none;fill-rule:nonzero;fill:rgb(25.490198%,25.490198%,25.490198%);fill-opacity:0.0784314;" d="M 3.636719 2.894531 C 3.089844 2.894531 2.644531 3.339844 2.644531 3.886719 L 2.644531 5.542969 L 29.105469 5.542969 L 29.105469 3.886719 C 29.105469 3.339844 28.664062 2.894531 28.113281 2.894531 Z M 3.636719 2.894531 "/>
</g>
</svg>

<svg xmlns="http://www.w3.org/2000/svg" width="32pt" height="32pt" viewBox="0 0 32 32"><defs><linearGradient id="a" gradientUnits="userSpaceOnUse" x1="254" y1="233.5" x2="254" y2="254.667" gradientTransform="matrix(.0625 0 0 .0625 0 13.439)"><stop offset="0" stop-opacity=".275"/><stop offset="1" stop-opacity="0"/></linearGradient><radialGradient id="b" gradientUnits="userSpaceOnUse" cx="450.909" cy="189.579" fx="450.909" fy="189.579" r="21.167" gradientTransform="matrix(0 -.07813 -.14064 0 53.123 63.595)"><stop offset="0" stop-opacity=".314"/><stop offset=".222" stop-opacity=".275"/><stop offset="1" stop-opacity="0"/></radialGradient><radialGradient id="c" gradientUnits="userSpaceOnUse" cx="450.909" cy="189.579" fx="450.909" fy="189.579" r="21.167" gradientTransform="matrix(0 .07813 .14064 0 -21.205 -7.527)"><stop offset="0" stop-opacity=".314"/><stop offset=".222" stop-opacity=".275"/><stop offset="1" stop-opacity="0"/></radialGradient><radialGradient id="d" gradientUnits="userSpaceOnUse" cx="450.909" cy="189.579" fx="450.909" fy="189.579" r="21.167" gradientTransform="matrix(0 -.07813 .14064 0 -21.205 63.595)"><stop offset="0" stop-opacity=".314"/><stop offset=".222" stop-opacity=".275"/><stop offset="1" stop-opacity="0"/></radialGradient><radialGradient id="e" gradientUnits="userSpaceOnUse" cx="450.909" cy="189.579" fx="450.909" fy="189.579" r="21.167" gradientTransform="matrix(0 .07813 -.14064 0 53.123 -7.527)"><stop offset="0" stop-opacity=".314"/><stop offset=".222" stop-opacity=".275"/><stop offset="1" stop-opacity="0"/></radialGradient><linearGradient id="f" gradientUnits="userSpaceOnUse" x1="254" y1="-168.667" x2="254" y2="233.5" gradientTransform="matrix(.0625 0 0 .0625 0 13.439)"><stop offset="0" stop-color="#ffab91"/><stop offset="1" stop-color="#ff8a65"/></linearGradient><linearGradient id="g" gradientUnits="userSpaceOnUse" x1="253.131" y1="-129.433" x2="253.131" y2="272.734" gradientTransform="matrix(3.77953 0 0 3.77953 3.285 664.314)"><stop offset="0" stop-color="#bcaaa4"/><stop offset="1" stop-color="#d7ccc8"/></linearGradient></defs><path d="M3.969 28.035a1.32 1.32 0 0 1-1.324-1.324v-.164c0 .73.59 1.32 1.324 1.32h23.816c.73 0 1.32-.59 1.32-1.32v.164a1.32 1.32 0 0 1-1.32 1.324zm0 0" fill-opacity=".196"/><path d="M5.125 28.035h21.668v1.32H5.125zm0 0" fill="url(#a)"/><path d="M26.793 28.035h2.645v-1.324h-2.645zm0 0" fill="url(#b)"/><path d="M5.125 28.035H2.48v1.32h2.645zm0 0" fill="url(#c)"/><path d="M5.125 28.035H2.48v-1.324h2.645zm0 0" fill="url(#d)"/><path d="M26.793 28.035h2.645v1.32h-2.645zm0 0" fill="url(#e)"/><path d="M3.637 2.895h24.476c.551 0 .992.445.992.992v23.156a.991.991 0 0 1-.992.992H3.637a.994.994 0 0 1-.992-.992V3.887c0-.547.445-.992.992-.992zm0 0" fill="url(#f)"/><path d="M9.262 18.773h1.984l2.645 5.293 3.308-9.261 2.645 5.953 1.988-4.633 2.645 5.957h2.644" fill="none" stroke-width="1.32239905" stroke="#141414" stroke-opacity=".235"/><path d="M2.645 24.395v2.648c0 .547.445.992.992.992h24.476c.551 0 .992-.445.992-.992v-2.648zm0 0" fill="#fff" fill-opacity=".078"/><path d="M12.598 2.895l.066 8.59.469.464.441-.441.442.441.457-.453.453.453.453-.453.457.453.453-.453.457.453.453-.453.457.453.453-.453.453.453.47-.465v-8.59zm0 0" fill-opacity=".235"/><path d="M764.336 175.023l4.016 491.764 28.107 28.344 26.927-26.69 26.69 26.69 27.4-27.4 27.634 27.4 27.4-27.4 27.398 27.4 27.636-27.4 27.399 27.4 27.635-27.4 27.399 27.4 27.635-27.4 27.399 27.4 28.343-28.344V175.023zm0 0" transform="rotate(.891) scale(.01654)" fill="url(#g)" stroke-width="11.339" stroke-linecap="round" stroke-linejoin="round" stroke="#212121"/><path d="M3.637 2.895a.994.994 0 0 0-.992.992v.332c0-.551.445-.992.992-.992h24.476c.551 0 .992.441.992.992v-.332a.991.991 0 0 0-.992-.992zm0 0" fill="#fff" fill-opacity=".392"/><path d="M3.637 28.035a.994.994 0 0 1-.992-.992v-.332c0 .55.445.992.992.992h24.476c.551 0 .992-.441.992-.992v.332a.991.991 0 0 1-.992.992zm0 0" fill="#050505" fill-opacity=".235"/><path d="M3.637 2.8c-.598 0-1.086.49-1.086 1.087v23.156c0 .598.488 1.086 1.086 1.086h24.476c.602 0 1.086-.488 1.086-1.086V3.887c0-.598-.484-1.086-1.086-1.086zm0 .188h24.476c.5 0 .899.403.899.899v23.156c0 .5-.399.898-.899.898H3.637a.896.896 0 0 1-.899-.898V3.887c0-.496.403-.899.899-.899zm0 0" fill="#212121"/><path d="M6.285 4.219L4.63 6.203h.992v2.649h1.324V6.203h.992zm0 0M9.594 4.219L7.938 6.203h.992v2.649h1.324V6.203h.992zm0 0M4.96 9.512h5.954v.66H4.961zm0 0" fill-opacity=".235"/><path d="M3.637 2.895a.994.994 0 0 0-.992.992v1.656h26.46V3.887a.991.991 0 0 0-.992-.992zm0 0" fill="#414141" fill-opacity=".078"/></svg>
